public/icons/smiley.svg

<svg xmlns="http://www.w3.org/2000/svg" height="24" width="24" preserveAspectRatio="xMidYMid meet" xmlns:v="https://vecta.io/nano"><path fill="#aebac1" d="M9.153 11.603c.795 0 1.439-.879 1.439-1.962s-.644-1.962-1.439-1.962-1.439.879-1.439 1.962.644 1.962 1.439 1.962zm-3.204 1.362c-.026-.307-.131 5.218 6.063 5.551 6.066-.25 6.066-5.551 6.066-5.551-6.078 1.416-12.129 0-12.129 0zm11.363 1.108s-.669 1.959-5.051 1.959c-3.505 0-5.388-1.164-5.607-1.959 0 0 5.912 1.055 10.658 0zM11.804 1.011C5.609 1.011.978 6.033.978 12.228s4.826 10.761 11.021 10.761S23.02 18.423 23.02 12.228A11.22 11.22 0 0 0 11.804 1.011zM12 21.354c-5.273 0-9.381-3.886-9.381-9.159s3.942-9.548 9.215-9.548a9.55 9.55 0 0 1 9.548 9.548c-.001 5.272-4.109 9.159-9.382 9.159zm3.108-9.751c.795 0 1.439-.879 1.439-1.962s-.644-1.962-1.439-1.962-1.439.879-1.439 1.962.644 1.962 1.439 1.962z"/></svg>

<svg xmlns:xlink="http://www.w3.org/1999/xlink" xmlns="http://www.w3.org/2000/svg" viewBox="0 0 24 24" height="24" width="24" preserveAspectRatio="xMidYMid meet" class="x23j0i4 xd7y6wv" version="1.1" x="0px" y="0px" enable-background="new 0 0 24 24"><title>smiley</title><path fill="#AEBAC1" d="M9.153,11.603c0.795,0,1.439-0.879,1.439-1.962S9.948,7.679,9.153,7.679 S7.714,8.558,7.714,9.641S8.358,11.603,9.153,11.603z M5.949,12.965c-0.026-0.307-0.131,5.218,6.063,5.551 c6.066-0.25,6.066-5.551,6.066-5.551C12,14.381,5.949,12.965,5.949,12.965z M17.312,14.073c0,0-0.669,1.959-5.051,1.959 c-3.505,0-5.388-1.164-5.607-1.959C6.654,14.073,12.566,15.128,17.312,14.073z M11.804,1.011c-6.195,0-10.826,5.022-10.826,11.217 s4.826,10.761,11.021,10.761S23.02,18.423,23.02,12.228C23.021,6.033,17.999,1.011,11.804,1.011z M12,21.354 c-5.273,0-9.381-3.886-9.381-9.159s3.942-9.548,9.215-9.548s9.548,4.275,9.548,9.548C21.381,17.467,17.273,21.354,12,21.354z  M15.108,11.603c0.795,0,1.439-0.879,1.439-1.962s-0.644-1.962-1.439-1.962s-1.439,0.879-1.439,1.962S14.313,11.603,15.108,11.603z"></path></svg>
